X: 27779
T: Morpeth Lasses, The
R: reel
M: 4/4
K: Aminor
|:A>BcA EAA2|B>AGd BGG2|A>BcA EAAe|dBGB BAA2:|
a>gea gea2|g>edg BGG2|a>gea gea2|gegB BAA2|
a>gea gea2|g>edg BGG2|A/B/c/A/ B/c/d/B/ c/d/e/c/ d/e/f/d/|e>feB BAA2||

